X:1
T:Coffee and Tea
M:C|
L:1/8
R:Reel
S:William Vickers' 1770 music manuscript collection (Northumberland)
Z:AK/Fiddler's Companion
K:D
de/f/|:g2 dc BG B/c/d/B/|.G(gg)a f2 ed|g2 dc BG B/c/d/B/|.A(aa)g f2 ed:|
|:BgBg a/g/f/e/ gB|BgBg f2 ed|BgBg a/g/f/e/ gB|.A(aa)g f2 ed:|]


